svg/UnitedNationsOCHA-Humanitarian/disaster_heatwave_icon.svg

<svg xmlns="http://www.w3.org/2000/svg" viewBox="0 0 32 32" enable-background="new 0 0 32 32"><path fill="#407cca" d="m13.217 23.477c0 1.344-1.091 2.435-2.438 2.435-1.347 0-2.436-1.091-2.436-2.435 0-.971.572-1.8 1.392-2.193v-10.05h2.087v10.05c.824.394 1.395 1.223 1.395 2.194m3.48-11.831h9.05v-1.394h-9.05v1.394m5.217 3.826v-9.05h-1.391v9.05h1.391m-6.611 8c0 2.492-2.028 4.521-4.523 4.521-2.494 0-4.523-2.029-4.523-4.521 0-1.533.795-2.972 2.086-3.802v-13.25c.006-1.339 1.095-2.426 2.436-2.426 1.339 0 2.431 1.087 2.438 2.426 0 .005 0 .008 0 .001v13.239c1.288.831 2.085 2.269 2.085 3.803m-.695 0c0-1.354-.734-2.622-1.916-3.307l-.174-.1v-13.635c0-.959-.779-1.739-1.739-1.739-.961 0-1.741.78-1.741 1.739v13.635l-.173.1c-1.18.687-1.914 1.952-1.914 3.307 0 2.109 1.719 3.826 3.828 3.826 2.112 0 3.829-1.717 3.829-3.826"/></svg>

<?xml version="1.0" encoding="utf-8"?>
<!-- Generator: Adobe Illustrator 16.0.3, SVG Export Plug-In . SVG Version: 6.00 Build 0)  -->
<!DOCTYPE svg PUBLIC "-//W3C//DTD SVG 1.1//EN" "http://www.w3.org/Graphics/SVG/1.1/DTD/svg11.dtd">
<svg version="1.1" id="Layer_1" xmlns="http://www.w3.org/2000/svg" xmlns:xlink="http://www.w3.org/1999/xlink" x="0px" y="0px"
	 width="32px" height="32px" viewBox="0 0 32 32" enable-background="new 0 0 32 32" xml:space="preserve">
<path fill="#407CCA" d="M13.217,23.477c0,1.344-1.091,2.435-2.438,2.435c-1.347,0-2.436-1.091-2.436-2.435
	c0-0.971,0.572-1.8,1.392-2.193V11.237h2.087v10.046C12.646,21.677,13.217,22.506,13.217,23.477z M16.697,11.646h9.047v-1.394
	h-9.047V11.646z M21.914,15.472V6.425h-1.391v9.047H21.914z M15.303,23.477c0,2.492-2.028,4.521-4.523,4.521
	c-2.494,0-4.523-2.029-4.523-4.521c0-1.533,0.795-2.972,2.086-3.802l0.001-13.25C8.35,5.086,9.439,3.999,10.78,3.999
	c1.339,0,2.431,1.087,2.438,2.426c0,0.005,0,0.008,0,0.01v13.239C14.506,20.505,15.303,21.943,15.303,23.477z M14.608,23.477
	c0-1.354-0.734-2.622-1.916-3.307l-0.174-0.1V6.435c0-0.959-0.779-1.739-1.739-1.739c-0.961,0-1.741,0.78-1.741,1.739l0,0V20.07
	l-0.173,0.1c-1.18,0.687-1.914,1.952-1.914,3.307c0,2.109,1.719,3.826,3.828,3.826C12.891,27.303,14.608,25.586,14.608,23.477z"/>
</svg>
